X: 1
T: Polska från Vetlanda
D: [[Grupper/Sågskära]] - Änglarnas språk
O: Vetlanda, Småland
Z: Transcribed to abc by Jon Magnusson 190325
R: Slängpolska
M: 3/4
L: 1/16
K: Dm
|:A4 d2^c2d2e2|gfef d2d2 c4|cfef fedc dcAc|cABG G2A2 A4:|
|:f2fe fefg a2a2|gagf efef g4|f2fe fefg a2a2|
gagf efef g4|f2fe d2df e2e^c|A2A^c c2d2 d4:|

